plasma/desktoptheme/Monochrome/icons/preferences.svg

<svg xmlns="http://www.w3.org/2000/svg" width="32" height="32" version="1.1">
 <g id="22-22-preferences-desktop-notification" transform="translate(32,-8)">
  <rect style="opacity:0.001" width="22" height="22" x="0" y="40"/>
  <path style="fill:#4285f4" d="m 11,43 c -4.418278,0 -8,3.581722 -8,8 0,4.418278 3.581722,8 8,8 4.418278,0 8,-3.581722 8,-8 0,-4.418278 -3.581722,-8 -8,-8 z"/>
  <path style="fill:#aaaaac" d="m 10,47 v 6 h 2 v -6 z m 1,7 c -0.453152,0 -1,0.518427 -1,0.980469 C 10,55.442512 10.546848,56 11,56 11.453152,56 12,55.442512 12,54.980469 12,54.518427 11.453152,54 11,54 Z"/>
 </g>
 <g id="22-22-preferences-system-bluetooth-activated" transform="translate(96,-72)">
  <rect style="opacity:0.001" width="22" height="22" x="0" y="104"/>
  <path style="fill:#aaaaac" d="M 11.5,107 C 8.453,107 6,109.676 6,113 v 4 c 0,3.324 2.453,6 5.5,6 3.047,0 5.5,-2.676 5.5,-6 v -4 c 0,-3.324 -2.453,-6 -5.5,-6 z m 7.5,0 a 2,2 0 0 0 -2,2 2,2 0 0 0 2,2 2,2 0 0 0 2,-2 2,2 0 0 0 -2,-2 z m -8,2 h 0.5 c 0.20775,0 0.39305,0.13292 0.46875,0.3125 l 2.875,2.84375 0.40625,0.375 -0.4375,0.34375 -2.5625,2.125 2.5625,2.125 0.4375,0.34375 -0.40625,0.375 -2.875,2.84375 c -0.0252,0.0599 -0.0798,0.11106 -0.125,0.15625 C 11.75335,120.93415 11.6385,121 11.5,121 H 11 v -0.5 -4.4375 l -2.15625,1.78125 C 8.75325,117.93425 8.63807,118 8.5,118 H 8 v -0.5 c 0,-0.15322 0.079,-0.28328 0.1875,-0.375 L 10.75,115 8.3125,112.96875 C 8.2658,112.94905 8.2257,112.9072 8.1875,112.875 8.07896,112.7833 8,112.65322 8,112.5 V 112 h 0.5 c 0.12292,0 0.22543,0.0514 0.3125,0.125 0.0107,0.009 0.02135,0.0213 0.03125,0.0312 L 11,113.9375 V 109.5 Z m 1,1.6875 v 3.25 l 1.78125,-1.46875 z m 0,5.375 v 3.25 l 1.78125,-1.78125 z"/>
 </g>
 <g id="22-22-preferences-system-bluetooth" transform="translate(8,32)">
  <rect style="opacity:0.001" width="22" height="22" x="56" y="0"/>
  <path style="fill:#aaaaac" d="M 67.5,3 C 64.453,3 62,5.676 62,9 v 4 c 0,3.324 2.453,6 5.5,6 3.047,0 5.5,-2.676 5.5,-6 V 9 C 73,5.676 70.547,3 67.5,3 Z M 67,5 h 0.5 c 0.20775,0 0.39305,0.13292 0.46875,0.3125 l 2.875,2.84375 L 71.25,8.53125 70.8125,8.875 68.25,11 l 2.5625,2.125 0.4375,0.34375 -0.40625,0.375 -2.875,2.84375 c -0.0252,0.0599 -0.0798,0.11106 -0.125,0.15625 C 67.75335,16.93415 67.6385,17 67.5,17 H 67 v -0.5 -4.4375 l -2.15625,1.78125 C 64.75325,13.93425 64.63807,14 64.5,14 H 64 v -0.5 c 0,-0.15322 0.079,-0.28328 0.1875,-0.375 L 66.75,11 64.3125,8.96875 C 64.2658,8.94905 64.2257,8.90725 64.1875,8.87505 64.07896,8.78335 64,8.65327 64,8.50005 v -0.5 h 0.5 c 0.12292,0 0.22543,0.0514 0.3125,0.125 0.0107,0.009 0.0213,0.0213 0.0312,0.0312 L 66.99995,9.9375 V 5.5 5 Z m 1,1.6875 v 3.25 l 1.78125,-1.46875 z m 0,5.375 v 3.25 l 1.78125,-1.78125 z"/>
 </g>
 <g id="22-22-preferences-system-bluetooth-inactive" transform="translate(72,32)">
  <rect style="opacity:0.001" width="22" height="22" x="56" y="0"/>
  <path style="opacity:0.3;fill:#aaaaac" d="M 67.5,3 C 64.453,3 62,5.676 62,9 v 4 c 0,3.324 2.453,6 5.5,6 3.047,0 5.5,-2.676 5.5,-6 V 9 C 73,5.676 70.547,3 67.5,3 Z M 67,5 h 0.5 c 0.20775,0 0.39305,0.13292 0.46875,0.3125 l 2.875,2.84375 L 71.25,8.53125 70.8125,8.875 68.25,11 l 2.5625,2.125 0.4375,0.34375 -0.40625,0.375 -2.875,2.84375 c -0.0252,0.0599 -0.0798,0.11106 -0.125,0.15625 C 67.75335,16.93415 67.6385,17 67.5,17 H 67 v -0.5 -4.4375 l -2.15625,1.78125 C 64.75325,13.93425 64.63807,14 64.5,14 H 64 v -0.5 c 0,-0.15322 0.079,-0.28328 0.1875,-0.375 L 66.75,11 64.3125,8.96875 C 64.2658,8.94905 64.2257,8.90725 64.1875,8.87505 64.07896,8.78335 64,8.65327 64,8.50005 v -0.5 h 0.5 c 0.12292,0 0.22543,0.0514 0.3125,0.125 0.0107,0.009 0.0213,0.0213 0.0312,0.0312 L 66.99995,9.9375 V 5.5 5 Z m 1,1.6875 v 3.25 l 1.78125,-1.46875 z m 0,5.375 v 3.25 l 1.78125,-1.78125 z"/>
 </g>
 <g id="22-22-preferences-desktop-display-randr" transform="translate(0,32)">
  <rect style="opacity:0.001" width="22" height="22" x="0" y="0"/>
  <path style="fill:#aaaaac" d="M 3.125,2.9999998 C 2,2.9999998 2,4.1431759 2,4.1431759 V 15.874512 c 0,1.143176 1.125,1.143176 1.125,1.143176 h 5.0375 c 0,0 -1.2001266,-0.298955 -1.1625,0.843601 V 19 h 8 v -1.138711 c 0,-1.143176 -1.050415,-0.843601 -1.050415,-0.843601 H 18.875 C 20,17.017688 20,15.874512 20,15.874512 V 4.1431759 c 0,0 0,-1.1431761 -1.125,-1.1431761 z M 4,5 h 14 v 9.98549 L 4,15.01451 Z"/>
 </g>
 <g id="preferences-desktop-display-randr">
  <rect style="opacity:0.001" width="32" height="32" x="0" y="0"/>
  <g transform="translate(0,-1)">
   <rect style="opacity:0.2" width="21" height="16" x="-29" y="-24" rx="1.25" ry="1.25" transform="matrix(0,-1,-1,0,0,0)"/>
   <rect style="fill:#8e8e8e" width="21" height="16" x="-28" y="-24" rx="1.25" ry="1.25" transform="matrix(0,-1,-1,0,0,0)"/>
   <rect style="opacity:0.2" width="20" height="26" x="-26" y="-29" rx="1.25" ry="1.25" transform="matrix(0,-1,-1,0,0,0)"/>
   <rect style="fill:#4f4f4f" width="20" height="26" x="-25" y="-29" rx="1.25" ry="1.25" transform="matrix(0,-1,-1,0,0,0)"/>
   <rect style="fill:#333333" width="16" height="22" x="-23" y="-27" rx="0" ry="0" transform="matrix(0,-1,-1,0,0,0)"/>
   <path style="opacity:0.1;fill:#ffffff" d="M 4.25,5 C 3.5575,5 3,5.5575 3,6.25 v 1 C 3,6.5575 3.5575,6 4.25,6 h 23.5 C 28.442,6 29,6.5575 29,7.25 v -1 C 29,5.5575 28.442,5 27.75,5 Z"/>
   <rect style="opacity:0.1;fill:#ffffff" width="22" height="1" x="5" y="23"/>
  </g>
 </g>
 <g id="preferences-desktop-notification" transform="translate(32)">
  <rect style="opacity:0.001" width="32" height="32" x="0" y="0"/>
  <path style="opacity:0.2" d="M 16,3 C 8.2680132,3 1.9999996,9.2680135 1.9999996,17 1.9999996,24.731986 8.2680132,31 16,31 23.731987,31 30,24.731986 30,17 30,9.2680135 23.731987,3 16,3 Z"/>
  <path style="fill:#4285f4" d="M 16,2 C 8.2680132,2 1.9999996,8.2680135 1.9999996,16 1.9999996,23.731986 8.2680132,30 16,30 23.731987,30 30,23.731986 30,16 30,8.2680135 23.731987,2 16,2 Z"/>
  <path style="opacity:0.2" d="m 14,8 v 12 h 4 V 8 Z m 2,14 c -0.906304,0 -2,1.036854 -2,1.960938 C 14,24.885024 15.093696,26 16,26 16.906304,26 18,24.885024 18,23.960938 18,23.036854 16.906304,22 16,22 Z"/>
  <path style="fill:#ffffff" d="m 14,7 v 12 h 4 V 7 Z m 2,14 c -0.906304,0 -2,1.036854 -2,1.960938 C 14,23.885024 15.093696,25 16,25 16.906304,25 18,23.885024 18,22.960938 18,22.036854 16.906304,21 16,21 Z"/>
  <path style="opacity:0.2;fill:#ffffff" d="M 16,2 C 8.2680132,2 2,8.2680135 2,16 2,16.168777 2.019467,16.332668 2.025391,16.5 2.2908203,9.0015471 8.4367904,3 16,3 23.56321,3 29.70918,9.0015471 29.974609,16.5 29.980533,16.332668 30,16.168777 30,16 30,8.2680135 23.731987,2 16,2 Z"/>
 </g>
 <g id="preferences-system-bluetooth-activated" transform="translate(96)">
  <rect style="opacity:0.001" width="32" height="32" x="0" y="0"/>
  <g>
   <rect style="fill:#324090" width="28" height="20" x="-30" y="-26" rx="11" ry="10" transform="matrix(0,-1,-1,0,0,0)"/>
   <path style="opacity:0.1;fill:#ffffff" d="M 16,2 C 10.46,2 6,6.906 6,13 v 1 C 6,7.906 10.46,3 16,3 21.54,3 26,7.906 26,14 V 13 C 26,6.906 21.54,2 16,2 Z"/>
   <path style="fill:none;stroke:#2fec5d;stroke-linecap:square" d="m 11,11.5 9,9 -4.5,4.25 V 7.25 l 4.5,4.25 -9,8"/>
   <path style="opacity:0.2" d="m 6,19 v 1 c 0,6.094 4.46,11 10,11 5.54,0 10,-4.906 10,-11 V 19 C 26,25.094 21.54,30 16,30 10.46,30 6,25.094 6,19 Z"/>
  </g>
 </g>
 <g id="preferences-system-bluetooth" transform="translate(64)">
  <rect style="opacity:0.001" width="32" height="32" x="0" y="0"/>
  <g>
   <rect style="fill:#324090" width="28" height="20" x="-30" y="-26" rx="11" ry="10" transform="matrix(0,-1,-1,0,0,0)"/>
   <path style="opacity:0.1;fill:#ffffff" d="M 16,2 C 10.46,2 6,6.906 6,13 v 1 C 6,7.906 10.46,3 16,3 21.54,3 26,7.906 26,14 V 13 C 26,6.906 21.54,2 16,2 Z"/>
   <path style="fill:none;stroke:#ffffff;stroke-linecap:square" d="m 11,11.5 9,9 -4.5,4.25 V 7.25 l 4.5,4.25 -9,8"/>
   <path style="opacity:0.2" d="m 6,19 v 1 c 0,6.094 4.46,11 10,11 5.54,0 10,-4.906 10,-11 V 19 C 26,25.094 21.54,30 16,30 10.46,30 6,25.094 6,19 Z"/>
  </g>
 </g>
 <g id="preferences-system-bluetooth-inactive" transform="translate(128)">
  <rect style="opacity:0.001" width="32" height="32" x="0" y="0"/>
  <g>
   <rect style="fill:#616161" width="28" height="20" x="-30" y="-26" rx="11" ry="10" transform="matrix(0,-1,-1,0,0,0)"/>
   <path style="opacity:0.1;fill:#ffffff" d="M 16,2 C 10.46,2 6,6.906 6,13 v 1 C 6,7.906 10.46,3 16,3 21.54,3 26,7.906 26,14 V 13 C 26,6.906 21.54,2 16,2 Z"/>
   <path style="fill:none;stroke:#ffffff;stroke-linecap:square" d="m 11,11.5 9,9 -4.5,4.25 V 7.25 l 4.5,4.25 -9,8"/>
   <path style="opacity:0.2" d="m 6,19 v 1 c 0,6.094 4.46,11 10,11 5.54,0 10,-4.906 10,-11 V 19 C 26,25.094 21.54,30 16,30 10.46,30 6,25.094 6,19 Z"/>
  </g>
 </g>
 <g id="22-22-preferences-system-windows" transform="translate(155,27)">
  <rect style="opacity:0.001" width="22" height="22" x="5" y="5"/>
  <path style="fill:#aaaaac" d="M 13.5,9 C 13,9 13,9.5 13,9.5 v 8 c 0,0.5 0.5,0.5 0.5,0.5 h 10 c 0,0 0.5,0 0.5,-0.5 v -8 C 24,9 23.5,9 23.5,9 Z m 1.5,3 h 7 v 4 H 15 Z M 7.519531,14 C 7.519531,14 7,14 7,14.5 v 8 C 7,23 7.5,23 7.5,23 h 10 c 0,0 0.5,-0.02 0.5,-0.5 V 19 h -2 v 2 H 9 v -4 h 3 v -3 z"/>
 </g>
 <g id="preferences-system-windows" transform="translate(160)">
  <rect style="opacity:0.001" width="32" height="32" x="0" y="0"/>
  <g transform="translate(0,1)">
   <path style="fill:#d3d3d3" d="M 9.5,1 C 9.3521,1 9.2129,1.0288 9.0781,1.0684 9.2147,1.0357 9.3499,1 9.5,1 Z M 8,4.9 V 18.5 C 8,19.331 8.669,20 9.5,20 h 19 C 29.331,20 30,19.331 30,18.5 V 4.9 Z"/>
   <path style="opacity:0.2" d="m 8,18.5 v 1 C 8,20.331 8.669,21 9.5,21 h 19 c 0.831,0 1.5,-0.669 1.5,-1.5 v -1 C 30,19.331 29.331,20 28.5,20 H 9.5 C 8.669,20 8,19.331 8,18.5 Z"/>
   <path style="fill:#e4e4e4" d="M 2,13.9 V 27.5 C 2,28.331 2.669,29 3.5,29 h 19 C 23.331,29 24,28.331 24,27.5 V 13.9 Z"/>
   <path style="fill:#636e73" d="M 3.5,10 C 2.669,10 2,10.669 2,11.5 V 14 H 24 V 11.5 C 24,10.669 23.331,10 22.5,10 Z"/>
   <path style="fill:#5a6367" d="M 9.5,1 C 8.669,1 8,1.5 8,2.5 V 5 H 30 V 2.5 C 30,1.669 29.331,1 28.5,1 Z"/>
   <path style="opacity:0.1;fill:#ffffff" d="M 9.5,1 C 8.669,1 8,1.669 8,2.5 v 1 C 8,2.669 8.669,2 9.5,2 h 19 C 29.331,2 30,2.669 30,3.5 v -1 C 30,1.669 29.331,1 28.5,1 Z"/>
   <path style="opacity:0.2" d="m 2,27.5 v 1 C 2,29.331 2.669,30 3.5,30 h 19 c 0.831,0 1.5,-0.669 1.5,-1.5 v -1 C 24,28.331 23.331,29 22.5,29 H 3.5 C 2.669,29 2,28.331 2,27.5 Z"/>
  </g>
 </g>
</svg>

<?xml version="1.0" encoding="UTF-8"?>
<svg width="32" height="32" version="1.1" xmlns="http://www.w3.org/2000/svg">
 <g id="22-22-preferences-desktop-notification" transform="translate(32,-8)">
  <rect y="40" width="22" height="22" opacity=".001"/>
  <path d="m11 43c-4.4183 0-8 3.5817-8 8s3.5817 8 8 8 8-3.5817 8-8-3.5817-8-8-8z" fill="#4285f4"/>
  <path d="m10 47v6h2v-6zm1 7c-0.45315 0-1 0.51843-1 0.98047 0 0.46204 0.54685 1.0195 1 1.0195s1-0.55749 1-1.0195c0-0.46204-0.54685-0.98047-1-0.98047z" fill="#aaaaac"/>
 </g>
 <g id="22-22-preferences-system-bluetooth-activated" transform="translate(96,-72)">
  <rect y="104" width="22" height="22" opacity=".001"/>
  <path d="m11.5 107c-3.047 0-5.5 2.676-5.5 6v4c0 3.324 2.453 6 5.5 6s5.5-2.676 5.5-6v-4c0-3.324-2.453-6-5.5-6zm7.5 0a2 2 0 0 0-2 2 2 2 0 0 0 2 2 2 2 0 0 0 2-2 2 2 0 0 0-2-2zm-8 2h0.5c0.20775 0 0.39305 0.13292 0.46875 0.3125l2.875 2.8438 0.40625 0.375-0.4375 0.34375-2.5625 2.125 2.5625 2.125 0.4375 0.34375-0.40625 0.375-2.875 2.8438c-0.0252 0.0599-0.0798 0.11106-0.125 0.15625-0.0904 0.0904-0.20525 0.15625-0.34375 0.15625h-0.5v-4.9375l-2.1562 1.7812c-0.0905 0.0905-0.20568 0.15625-0.34375 0.15625h-0.5v-0.5c0-0.15322 0.079-0.28328 0.1875-0.375l2.5625-2.125-2.4375-2.0312c-0.0467-0.0197-0.0868-0.06155-0.125-0.09375-0.10854-0.0917-0.1875-0.22178-0.1875-0.375v-0.5h0.5c0.12292 0 0.22543 0.0514 0.3125 0.125 0.0107 9e-3 0.02135 0.0213 0.03125 0.0312l2.1562 1.7813v-4.4375zm1 1.6875v3.25l1.7812-1.4688zm0 5.375v3.25l1.7812-1.7812z" fill="#aaaaac"/>
 </g>
 <g id="22-22-preferences-system-bluetooth" transform="translate(8,32)">
  <rect x="56" width="22" height="22" opacity=".001"/>
  <path d="m67.5 3c-3.047 0-5.5 2.676-5.5 6v4c0 3.324 2.453 6 5.5 6s5.5-2.676 5.5-6v-4c0-3.324-2.453-6-5.5-6zm-0.5 2h0.5c0.20775 0 0.39305 0.13292 0.46875 0.3125l2.875 2.8438 0.40625 0.375-0.4375 0.34375-2.5625 2.125 2.5625 2.125 0.4375 0.34375-0.40625 0.375-2.875 2.8438c-0.0252 0.0599-0.0798 0.11106-0.125 0.15625-0.0904 0.0904-0.20525 0.15625-0.34375 0.15625h-0.5v-4.9375l-2.1562 1.7812c-0.0905 0.0905-0.20568 0.15625-0.34375 0.15625h-0.5v-0.5c0-0.15322 0.079-0.28328 0.1875-0.375l2.5625-2.125-2.4375-2.0312c-0.0467-0.0197-0.0868-0.0615-0.125-0.0937-0.10854-0.0917-0.1875-0.22178-0.1875-0.375v-0.5h0.5c0.12292 0 0.22543 0.0514 0.3125 0.125 0.0107 9e-3 0.0213 0.0213 0.0312 0.0312l2.1562 1.7812v-4.9375zm1 1.6875v3.25l1.7812-1.4688zm0 5.375v3.25l1.7812-1.7812z" fill="#aaaaac"/>
 </g>
 <g id="22-22-preferences-system-bluetooth-inactive" transform="translate(72,32)">
  <rect x="56" width="22" height="22" opacity=".001"/>
  <path d="m67.5 3c-3.047 0-5.5 2.676-5.5 6v4c0 3.324 2.453 6 5.5 6s5.5-2.676 5.5-6v-4c0-3.324-2.453-6-5.5-6zm-0.5 2h0.5c0.20775 0 0.39305 0.13292 0.46875 0.3125l2.875 2.8438 0.40625 0.375-0.4375 0.34375-2.5625 2.125 2.5625 2.125 0.4375 0.34375-0.40625 0.375-2.875 2.8438c-0.0252 0.0599-0.0798 0.11106-0.125 0.15625-0.0904 0.0904-0.20525 0.15625-0.34375 0.15625h-0.5v-4.9375l-2.1562 1.7812c-0.0905 0.0905-0.20568 0.15625-0.34375 0.15625h-0.5v-0.5c0-0.15322 0.079-0.28328 0.1875-0.375l2.5625-2.125-2.4375-2.0312c-0.0467-0.0197-0.0868-0.0615-0.125-0.0937-0.10854-0.0917-0.1875-0.22178-0.1875-0.375v-0.5h0.5c0.12292 0 0.22543 0.0514 0.3125 0.125 0.0107 9e-3 0.0213 0.0213 0.0312 0.0312l2.1562 1.7812v-4.9375zm1 1.6875v3.25l1.7812-1.4688zm0 5.375v3.25l1.7812-1.7812z" fill="#aaaaac" opacity=".3"/>
 </g>
 <g id="22-22-preferences-desktop-display-randr" transform="translate(0,32)">
  <rect width="22" height="22" opacity=".001"/>
  <path d="m3.125 3c-1.125 0-1.125 1.1432-1.125 1.1432v11.731c0 1.1432 1.125 1.1432 1.125 1.1432h5.0375s-1.2001-0.29896-1.1625 0.8436v1.1387h8v-1.1387c0-1.1432-1.0504-0.8436-1.0504-0.8436h4.9254c1.125 0 1.125-1.1432 1.125-1.1432v-11.731s0-1.1432-1.125-1.1432zm0.875 2h14v9.9855l-14 0.02902z" fill="#aaaaac"/>
 </g>
 <g id="preferences-desktop-display-randr">
  <rect width="32" height="32" opacity=".001"/>
  <g transform="translate(0,-1)">
   <rect transform="matrix(0,-1,-1,0,0,0)" x="-29" y="-24" width="21" height="16" rx="1.25" ry="1.25" opacity=".2"/>
   <rect transform="matrix(0,-1,-1,0,0,0)" x="-28" y="-24" width="21" height="16" rx="1.25" ry="1.25" fill="#8e8e8e"/>
   <rect transform="matrix(0,-1,-1,0,0,0)" x="-26" y="-29" width="20" height="26" rx="1.25" ry="1.25" opacity=".2"/>
   <rect transform="matrix(0,-1,-1,0,0,0)" x="-25" y="-29" width="20" height="26" rx="1.25" ry="1.25" fill="#4f4f4f"/>
   <rect transform="matrix(0,-1,-1,0,0,0)" x="-23" y="-27" width="16" height="22" rx="0" ry="0" fill="#333"/>
   <path d="M 4.25,5 C 3.5575,5 3,5.5575 3,6.25 v 1 C 3,6.5575 3.5575,6 4.25,6 h 23.5 C 28.442,6 29,6.5575 29,7.25 v -1 C 29,5.5575 28.442,5 27.75,5 Z" fill="#fff" opacity=".1"/>
   <rect x="5" y="23" width="22" height="1" fill="#fff" opacity=".1"/>
  </g>
 </g>
 <g id="preferences-desktop-notification" transform="translate(32)">
  <rect width="32" height="32" opacity=".001"/>
  <path d="m16 3c-7.732 0-14 6.268-14 14 0 7.732 6.268 14 14 14 7.732 0 14-6.268 14-14 0-7.732-6.268-14-14-14z" opacity=".2"/>
  <path d="m16 2c-7.732 0-14 6.268-14 14 0 7.732 6.268 14 14 14 7.732 0 14-6.268 14-14 0-7.732-6.268-14-14-14z" fill="#4285f4"/>
  <path d="m14 8v12h4v-12zm2 14c-0.9063 0-2 1.0369-2 1.9609 0 0.92409 1.0937 2.0391 2 2.0391s2-1.115 2-2.0391c0-0.92408-1.0937-1.9609-2-1.9609z" opacity=".2"/>
  <path d="m14 7v12h4v-12zm2 14c-0.9063 0-2 1.0369-2 1.9609 0 0.92409 1.0937 2.0391 2 2.0391s2-1.115 2-2.0391c0-0.92408-1.0937-1.9609-2-1.9609z" fill="#fff"/>
  <path d="m16 2c-7.732 0-14 6.268-14 14 0 0.16878 0.019467 0.33267 0.025391 0.5 0.26543-7.4985 6.4114-13.5 13.975-13.5 7.5632 0 13.709 6.0015 13.975 13.5 0.005924-0.16733 0.025391-0.33122 0.025391-0.5 0-7.732-6.268-14-14-14z" fill="#fff" opacity=".2"/>
 </g>
 <g id="preferences-system-bluetooth-activated" transform="translate(96)">
  <rect width="32" height="32" opacity=".001"/>
  <rect transform="matrix(0,-1,-1,0,0,0)" x="-30" y="-26" width="28" height="20" rx="11" ry="10" fill="#324090"/>
  <path d="m16 2c-5.54 0-10 4.906-10 11v1c0-6.094 4.46-11 10-11s10 4.906 10 11v-1c0-6.094-4.46-11-10-11z" fill="#fff" opacity=".1"/>
  <path d="m11 11.5 9 9-4.5 4.25v-17.5l4.5 4.25-9 8" fill="none" stroke="#2fec5d" stroke-linecap="square"/>
  <path d="m6 19v1c0 6.094 4.46 11 10 11s10-4.906 10-11v-1c0 6.094-4.46 11-10 11s-10-4.906-10-11z" opacity=".2"/>
 </g>
 <g id="preferences-system-bluetooth" transform="translate(64)">
  <rect width="32" height="32" opacity=".001"/>
  <rect transform="matrix(0,-1,-1,0,0,0)" x="-30" y="-26" width="28" height="20" rx="11" ry="10" fill="#324090"/>
  <path d="m16 2c-5.54 0-10 4.906-10 11v1c0-6.094 4.46-11 10-11s10 4.906 10 11v-1c0-6.094-4.46-11-10-11z" fill="#fff" opacity=".1"/>
  <path d="m11 11.5 9 9-4.5 4.25v-17.5l4.5 4.25-9 8" fill="none" stroke="#fff" stroke-linecap="square"/>
  <path d="m6 19v1c0 6.094 4.46 11 10 11s10-4.906 10-11v-1c0 6.094-4.46 11-10 11s-10-4.906-10-11z" opacity=".2"/>
 </g>
 <g id="preferences-system-bluetooth-inactive" transform="translate(128)">
  <rect width="32" height="32" opacity=".001"/>
  <rect transform="matrix(0,-1,-1,0,0,0)" x="-30" y="-26" width="28" height="20" rx="11" ry="10" fill="#616161"/>
  <path d="m16 2c-5.54 0-10 4.906-10 11v1c0-6.094 4.46-11 10-11s10 4.906 10 11v-1c0-6.094-4.46-11-10-11z" fill="#fff" opacity=".1"/>
  <path d="m11 11.5 9 9-4.5 4.25v-17.5l4.5 4.25-9 8" fill="none" stroke="#fff" stroke-linecap="square"/>
  <path d="m6 19v1c0 6.094 4.46 11 10 11s10-4.906 10-11v-1c0 6.094-4.46 11-10 11s-10-4.906-10-11z" opacity=".2"/>
 </g>
 <g id="22-22-preferences-system-windows" transform="translate(155,27)">
  <rect x="5" y="5" width="22" height="22" opacity=".001"/>
  <path d="m13.5 9c-0.5 0-0.5 0.5-0.5 0.5v8c0 0.5 0.5 0.5 0.5 0.5h10s0.5 0 0.5-0.5v-8c0-0.5-0.5-0.5-0.5-0.5zm1.5 3h7v4h-7zm-7.4805 2s-0.51953 0-0.51953 0.5v8c0 0.5 0.5 0.5 0.5 0.5h10s0.5-0.02 0.5-0.5v-3.5h-2v2h-7v-4h3v-3z" fill="#aaaaac"/>
 </g>
 <g id="preferences-system-windows" transform="translate(160)">
  <rect width="32" height="32" opacity=".001"/>
  <g transform="translate(0,1)">
   <path d="M 9.5,1 C 9.3521,1 9.2129,1.0288 9.0781,1.0684 9.2147,1.0357 9.3499,1 9.5,1 Z M 8,4.9 V 18.5 C 8,19.331 8.669,20 9.5,20 h 19 C 29.331,20 30,19.331 30,18.5 V 4.9 Z" fill="#d3d3d3"/>
   <path d="m8 18.5v1c0 0.831 0.669 1.5 1.5 1.5h19c0.831 0 1.5-0.669 1.5-1.5v-1c0 0.831-0.669 1.5-1.5 1.5h-19c-0.831 0-1.5-0.669-1.5-1.5z" opacity=".2"/>
   <path d="m2 13.9v13.6c0 0.831 0.669 1.5 1.5 1.5h19c0.831 0 1.5-0.669 1.5-1.5v-13.6z" fill="#e4e4e4"/>
   <path d="m3.5 10c-0.831 0-1.5 0.669-1.5 1.5v2.5h22v-2.5c0-0.831-0.669-1.5-1.5-1.5z" fill="#636e73"/>
   <path d="m9.5 1c-0.831 0-1.5 0.5-1.5 1.5v2.5h22v-2.5c0-0.831-0.669-1.5-1.5-1.5z" fill="#5a6367"/>
   <path d="m9.5 1c-0.831 0-1.5 0.669-1.5 1.5v1c0-0.831 0.669-1.5 1.5-1.5h19c0.831 0 1.5 0.669 1.5 1.5v-1c0-0.831-0.669-1.5-1.5-1.5z" fill="#fff" opacity=".1"/>
   <path d="m2 27.5v1c0 0.831 0.669 1.5 1.5 1.5h19c0.831 0 1.5-0.669 1.5-1.5v-1c0 0.831-0.669 1.5-1.5 1.5h-19c-0.831 0-1.5-0.669-1.5-1.5z" opacity=".2"/>
  </g>
 </g>
 <g id="preferences-desktop-notification-bell" transform="translate(-22,32)">
  <rect width="22" height="22" opacity=".001"/>
  <path d="m11 3c0.55 0 1 0.45 1 1 0 0.03 0 0.07-0.01 0.1 2.29 0.46 4.01 2.47 4.01 4.9v4.5l2 2v0.5h-14v-0.5l2-2v-4.5c0-2.43 1.72-4.44 4.01-4.9-0.01-0.03-0.01-0.07-0.01-0.1 0-0.55 0.45-1 1-1zm1.73 14c-0.36 0.62-1.02 1-1.73 1s-1.37-0.38-1.73-1z" fill="#aaaaac"/>
 </g>
</svg>
